ui/StatusQ/src/assets/img/icons/history.svg

<svg fill="none" height="24" viewBox="0 0 24 24" width="24" xmlns="http://www.w3.org/2000/svg"><g fill="#000"><path d="m12.75 7c0-.41421-.3358-.75-.75-.75s-.75.33579-.75.75v4.1716c0 .7293.2897 1.4288.8055 1.9445l2.4142 2.4142c.2929.2929.7677.2929 1.0606 0s.2929-.7677 0-1.0606l-2.4142-2.4142c-.2344-.2345-.3661-.5524-.3661-.8839z"/><path clip-rule="evenodd" d="m22 12c0 5.5228-4.4772 10-10 10-5.52285 0-10-4.4772-10-10 0-5.52285 4.47715-10 10-10 5.5228 0 10 4.47715 10 10zm-1.5 0c0 4.6944-3.8056 8.5-8.5 8.5-4.69442 0-8.5-3.8056-8.5-8.5 0-4.69442 3.80558-8.5 8.5-8.5 4.6944 0 8.5 3.80558 8.5 8.5z" fill-rule="evenodd"/></g></svg>

<svg width="24" height="24" viewBox="0 0 24 24" fill="none" xmlns="http://www.w3.org/2000/svg">
<path d="M12.75 7C12.75 6.58579 12.4142 6.25 12 6.25C11.5858 6.25 11.25 6.58579 11.25 7V11.1716C11.25 11.9009 11.5397 12.6004 12.0555 13.1161L14.4697 15.5303C14.7626 15.8232 15.2374 15.8232 15.5303 15.5303C15.8232 15.2374 15.8232 14.7626 15.5303 14.4697L13.1161 12.0555C12.8817 11.821 12.75 11.5031 12.75 11.1716V7Z" fill="black"/>
<path fill-rule="evenodd" clip-rule="evenodd" d="M22 12C22 17.5228 17.5228 22 12 22C6.47715 22 2 17.5228 2 12C2 6.47715 6.47715 2 12 2C17.5228 2 22 6.47715 22 12ZM20.5 12C20.5 16.6944 16.6944 20.5 12 20.5C7.30558 20.5 3.5 16.6944 3.5 12C3.5 7.30558 7.30558 3.5 12 3.5C16.6944 3.5 20.5 7.30558 20.5 12Z" fill="black"/>
</svg>
